src/svg/bell.svg

<svg width="1792" height="1792" viewBox="0 0 1792 1792" xmlns="http://www.w3.org/2000/svg"><path d="M912 1696q0-16-16-16-59 0-101.5-42.5t-42.5-101.5q0-16-16-16t-16 16q0 73 51.5 124.5t124.5 51.5q16 0 16-16zm816-288q0 52-38 90t-90 38h-448q0 106-75 181t-181 75-181-75-75-181h-448q-52 0-90-38t-38-90q50-42 91-88t85-119.5 74.5-158.5 50-206 19.5-260q0-152 117-282.5t307-158.5q-8-19-8-39 0-40 28-68t68-28 68 28 28 68q0 20-8 39 190 28 307 158.5t117 282.5q0 139 19.5 260t50 206 74.5 158.5 85 119.5 91 88z"/></svg>

<svg xmlns="http://www.w3.org/2000/svg" viewBox="0 0 1664 1792"><title>bell</title><path d="M1728,1408q0,52-38,90t-90,38H1152q0,106-75,181t-181,75q-106,0-181-75t-75-181H192q-52,0-90-38t-38-90a878.38,878.38,0,0,0,91-88q41-46,85-119.5A898.34,898.34,0,0,0,314.5,1042q30.5-85,50-206T384,576q0-152,117-282.5T808,135a99.6,99.6,0,0,1-8-39q0-40,28-68T896,0q40,0,68,28t28,68a99.6,99.6,0,0,1-8,39q190,28,307,158.5T1408,576q0,139,19.5,260t50,206a898.34,898.34,0,0,0,74.5,158.5q44,73.5,85,119.5A878.38,878.38,0,0,0,1728,1408Z" transform="translate(-64)"/></svg>
